X: 1
T: Iggie and Squiggie
C: Jerry Holland
F: http://www.thesession.org/tunes/display/7445
Z: 2011 John Chambers <jc:trillian.mit.edu>
M: C|
L: 1/8
K: D
de |\
"D"fgfe d2fd | "G"B2dB "D"BAFA | "D"fgfe d2fd | "A7"ABde fece | "D"fgfe d2fd |
"G"B2dB "D"BAFA | "D"fgfe "(G)"dedc | "A7"BABc "D"d2 :: fg | "D"ad~d2 adbd | "D"ad~d2 "A7"agfg |
"D"ad~d2 adbd | "D"fede "A7"feeg | "D"ad~d2 adbd | "D"ad~d2 "G"g4 | "D"fgfe "(G)"dedc | "A7"BABc "D"d2 :|

%%sep 2 1 500

